X: 22123
T: Kriden Fair
R: jig
M: 6/8
K: Dmajor
|:DFA d2 f|ecA BdB|AFD G2 B|AFD EGE|
DFA d2 e|fdf ecA|dfa cea|dcB A3:|
|:Ace Ace|EFG GFE|Bdf Bdf|BAG FGE|
DdA FDF|EeB GEF|GBe FAd|GFE D3:|

